documentation/images/twitter-logo.svg

<svg fill="none" height="24" viewBox="0 0 24 24" width="24" xmlns="http://www.w3.org/2000/svg"><path d="m23.9979 5.13125c-.8457.36089-1.7542.60474-2.7094.71496.9744-.56183 1.7219-1.45334 2.0744-2.51457-.9116.52086-1.9214.89931-2.9961 1.1022-.8609-.88176-2.0864-1.43384-3.4437-1.43384-2.605 0-4.7179 2.03468-4.7179 4.54536 0 .35504.0426.70033.1216 1.03392-3.92282-.1902-7.39793-1.99957-9.72547-4.74824-.40515.67302-.6381 1.45334-.6381 2.28438 0 1.57625.83358 2.96814 2.09864 3.7826-.77383-.02439-1.50106-.22825-2.13713-.56866v.05852c0 2.20152 1.62563 4.03812 3.78504 4.45562-.39704.1034-.81332.158-1.24277.158-.30386 0-.60063-.0273-.88828-.08.60063 1.8045 2.34274 3.1194 4.40796 3.1545-1.61551 1.2192-3.65034 1.9459-5.86039 1.9459-.38084 0-.75661-.0215-1.1263-.0634 2.08851 1.2904 4.56798 2.0415 7.2318 2.0415 8.6802 0 13.4254-6.9234 13.4254-12.92793 0-.19508-.005-.39211-.0142-.58719.9217-.64181 1.7219-1.44066 2.3529-2.35071z" fill="#1da1f1"/></svg>

<svg width="24" height="24" viewBox="0 0 24 24" fill="none" xmlns="http://www.w3.org/2000/svg">
<path d="M23.9979 5.13125C23.1522 5.49214 22.2437 5.73599 21.2885 5.84621C22.2629 5.28438 23.0104 4.39287 23.3629 3.33164C22.4513 3.8525 21.4415 4.23095 20.3668 4.43384C19.5059 3.55208 18.2804 3 16.9231 3C14.3181 3 12.2052 5.03468 12.2052 7.54536C12.2052 7.9004 12.2478 8.24569 12.3268 8.57928C8.40398 8.38908 4.92887 6.57971 2.60133 3.83104C2.19618 4.50406 1.96323 5.28438 1.96323 6.11542C1.96323 7.69167 2.79681 9.08356 4.06187 9.89802C3.28804 9.87363 2.56081 9.66977 1.92474 9.32936V9.38788C1.92474 11.5894 3.55037 13.426 5.70978 13.8435C5.31274 13.9469 4.89646 14.0015 4.46701 14.0015C4.16315 14.0015 3.86638 13.9742 3.57873 13.9215C4.17936 15.726 5.92147 17.0409 7.98669 17.076C6.37118 18.2952 4.33635 19.0219 2.1263 19.0219C1.74546 19.0219 1.36969 19.0004 1 18.9585C3.08851 20.2489 5.56798 21 8.2318 21C16.912 21 21.6572 14.0766 21.6572 8.07207C21.6572 7.87699 21.6522 7.67996 21.643 7.48488C22.5647 6.84307 23.3649 6.04422 23.9959 5.13417L23.9979 5.13125Z" fill="#1da1f1"/>
</svg>
